X: 10810
T: Dragon, The
R: reel
M: 4/4
K: Amajor
|:e2>c2 dG FG|E2 cA Bc Ac|B2 cA Bc AB|cA ce fd ag|fd fg ga gf|e^d ef e=d cA|BA GA Bc fg|ab ag ed cB|GA Bc dB GB|Ac BG AB cd:|
|:ec AE CA, CE|Ac ea ga ga|fd AF DF Ad|^ef2a gf =ed|ec AE C2 fe|^de cA EA cA|BA GA Bd BA|GA B^B =BA GA|Bd BA GA BG|Ac BG AB cd:|

